X: 31459
T: Paddy Taylor's
R: jig
M: 6/8
K: Amajor
F|E3 dcd|efd Bcd|cBc dBA|GED B,CD|
EDE dcd|efe Bcd|cBA ged|EFG A2:|
d|cBA BAG|ABA GEd|EFE A,2 E|cBA BGE|
cBA BAG|ABA GAB|cBA GED|EDB, A,2:|

